X:06
T:Fasten The Leggin's  jig     Allan's  #06, Pg2
C:Trad/Anon
B:Allan's Irish Fiddler (pub. Mozart Allen,  Glascow) date unknown
Z:FROM ALLAN'S TO NOTEWORTHY, FROM NOTEWORTHY TO ABC, MIDI AND .TXT BY VINCE
BRENNAN Dec. 2002 (HTTP://WWW.SOSYOURMOM.COM)
I:abc2nwc
M:6/8
L:1/8
K:G
(d/2c/2)|BcB {c}BAB|GBd gdB|A2A AGA|Bee dBA|
BdB {d}BAB|GBdg2d|efg eag|f d d d2:|
|:e/2f/2|gfg fef|ege dBA|GFGAGA|
Bee def|gAA fAA|ege {e}d^cd|efg eag|fdd d2:|
